src/Resource_Files/fluent/insert-id.svg

<svg clip-rule="evenodd" fill-rule="evenodd" stroke-linejoin="round" stroke-miterlimit="2" viewBox="0 0 16 16" xmlns="http://www.w3.org/2000/svg"><path d="m107.332 101.255-5.59-15.667c-.5-1.4-1.9-2.2-3.3-2-1.5.2-2.5 1.5-2.5 3 0 1.701.732 4.433-.152 6.289-4.57 9.602-20.577 17.655-28.79 18.912v-44.693h6.2c1.7 0 3-1.3 3-3s-1.3-3-3-3h-6.2v-11.596c4.1-1.3 7-5.1 7-9.5 0-5.5-4.5-10-10-10s-10 4.5-10 10c0 4.5 2.9 8.3 7 9.5v11.596h-6.2c-1.7 0-3 1.3-3 3s1.3 3 3 3h6.2v44.693c-8.213-1.257-24.119-10.226-28.69-19.828-.883-1.856-.252-3.672-.252-5.373 0-1.5-1.1-2.7-2.5-3-1.4-.2-2.9.6-3.3 2l-5.489 16.672c-.5 1.6.3 3.3 1.9 3.8 1.1.4 4.889-8.072 5.689-8.772 3.7 8.7 23.242 21.197 32.742 22.297v.2c0 1.7 1.3 3 3 3s3-1.3 3-3v-.3c9.5-1.1 29.042-13.597 32.742-22.297.8.7 4.59 8.167 5.69 7.767 1.5-.4 2.3-2.1 1.8-3.7zm-43.332-65.255c2.2 0 4 1.8 4 4s-1.8 4-4 4-4-1.8-4-4 1.8-4 4-4z" fill="#1abc9c" fill-rule="nonzero" transform="matrix(.173283 0 0 .161391 -3.59885 -4.84173)"/></svg>

<?xml version="1.0" encoding="UTF-8" standalone="no"?>
<!DOCTYPE svg PUBLIC "-//W3C//DTD SVG 1.1//EN" "http://www.w3.org/Graphics/SVG/1.1/DTD/svg11.dtd">
<svg width="100%" height="100%" viewBox="0 0 16 16" version="1.1" xmlns="http://www.w3.org/2000/svg" xmlns:xlink="http://www.w3.org/1999/xlink" xml:space="preserve" xmlns:serif="http://www.serif.com/" style="fill-rule:evenodd;clip-rule:evenodd;stroke-linejoin:round;stroke-miterlimit:2;">
    <g id="Anchor16" transform="matrix(0.173283,0,0,0.161391,-3.59885,-4.84173)">
        <path d="M107.332,101.255L101.742,85.588C101.242,84.188 99.842,83.388 98.442,83.588C96.942,83.788 95.942,85.088 95.942,86.588C95.942,88.289 96.674,91.021 95.79,92.877C91.22,102.479 75.213,110.532 67,111.789L67,67.096L73.2,67.096C74.9,67.096 76.2,65.796 76.2,64.096C76.2,62.396 74.9,61.096 73.2,61.096L67,61.096L67,49.5C71.1,48.2 74,44.4 74,40C74,34.5 69.5,30 64,30C58.5,30 54,34.5 54,40C54,44.5 56.9,48.3 61,49.5L61,61.096L54.8,61.096C53.1,61.096 51.8,62.396 51.8,64.096C51.8,65.796 53.1,67.096 54.8,67.096L61,67.096L61,111.789C52.787,110.532 36.881,101.563 32.31,91.961C31.427,90.105 32.058,88.289 32.058,86.588C32.058,85.088 30.958,83.888 29.558,83.588C28.158,83.388 26.658,84.188 26.258,85.588L20.769,102.26C20.269,103.86 21.069,105.56 22.669,106.06C23.769,106.46 27.558,97.988 28.358,97.288C32.058,105.988 51.6,118.485 61.1,119.585L61.1,119.785C61.1,121.485 62.4,122.785 64.1,122.785C65.8,122.785 67.1,121.485 67.1,119.785L67.1,119.485C76.6,118.385 96.142,105.888 99.842,97.188C100.642,97.888 104.432,105.355 105.532,104.955C107.032,104.555 107.832,102.855 107.332,101.255ZM64,36C66.2,36 68,37.8 68,40C68,42.2 66.2,44 64,44C61.8,44 60,42.2 60,40C60,37.8 61.8,36 64,36Z" style="fill:rgb(26,188,156);fill-rule:nonzero;"/>
    </g>
</svg>
